assets/img/client-2.svg

<svg width="244" height="131" viewBox="0 0 244 131" fill="none" xmlns="http://www.w3.org/2000/svg">
<g filter="url(#filter0_d_2_588)">
<rect x="19.9956" y="10" width="204" height="91" rx="12" fill="white"/>
</g>
<path d="M131.621 43.1023V45.869C131.628 46.0545 131.708 46.2297 131.844 46.3569C131.979 46.4841 132.159 46.5532 132.344 46.5492H138.771L131.366 57.1452C130.898 57.8263 130.898 58.5919 130.898 59.0175V61.8258C130.898 62.2513 131.366 62.6768 131.792 62.4641C135.962 60.2086 141.026 60.4214 144.813 62.4215C145.281 62.6765 145.706 62.2087 145.706 61.7832V58.847C145.664 58.464 145.536 58.0384 145.068 57.7831C142.941 56.5919 140.43 56.2516 138.047 56.2942L144.43 47.1876C145.026 46.3361 145.366 45.8258 145.366 45.4428V43.1023C145.359 42.9166 145.279 42.7413 145.143 42.614C145.008 42.4866 144.828 42.4175 144.642 42.4214H132.302C132.211 42.4166 132.12 42.4309 132.036 42.4634C131.951 42.4959 131.874 42.5459 131.81 42.6101C131.745 42.6743 131.695 42.7513 131.663 42.8361C131.63 42.9209 131.616 43.0116 131.621 43.1023Z" fill="#C4C4C4"/>
<path d="M82.8965 63.0176H86.6413C86.8251 63.0241 87.0049 62.9627 87.1462 62.8449C87.2876 62.7271 87.3805 62.5614 87.4072 62.3794V52.1663C87.4072 52.0996 87.4072 52.0322 87.4071 51.9642C87.4046 49.7324 87.4015 46.847 90.0031 46.847C92.3785 46.847 92.3392 49.4343 92.3078 51.5029C92.3043 51.7318 92.3009 51.9543 92.3009 52.1663V62.3794C92.3009 62.7199 92.5989 63.0177 92.9818 63.0603H96.7266C96.9123 63.0642 97.0922 62.995 97.2274 62.8677C97.3627 62.7403 97.4426 62.565 97.4499 62.3794V52.1663C97.4499 52.0688 97.4496 51.9673 97.4493 51.8627C97.4457 50.7799 97.4411 49.3566 97.7903 48.4642C97.9718 48.0104 98.282 47.6195 98.6827 47.3398C99.0834 47.06 99.5572 46.9035 100.046 46.8896C101.152 46.8896 101.961 47.2726 102.259 48.5492C102.392 49.1503 102.368 50.5376 102.352 51.4977C102.348 51.761 102.344 51.9923 102.344 52.1663V62.3794C102.344 62.7199 102.642 63.0177 103.025 63.0603H106.727C106.913 63.0642 107.093 62.995 107.228 62.8677C107.363 62.7403 107.443 62.565 107.451 62.3794V50.2089C107.451 49.8988 107.456 49.5831 107.462 49.2649C107.494 47.4436 107.528 45.5428 106.514 44.1663C105.45 42.6768 103.748 42.0385 102.174 42.0385C99.9607 42.0385 97.8753 43.1875 96.9819 45.613C95.9605 43.1875 94.4712 42.0385 92.1307 42.0385C89.8328 42.0385 88.0878 43.1875 87.1944 45.613H87.1093V43.1023C87.0956 42.9303 87.0182 42.7695 86.8923 42.6515C86.7664 42.5335 86.601 42.4666 86.4284 42.464H82.939C82.7533 42.4601 82.5734 42.5293 82.4382 42.6566C82.3029 42.7839 82.223 42.9593 82.2156 43.1449V62.3793C82.2434 62.5456 82.325 62.6983 82.4481 62.8136C82.5711 62.929 82.7287 63.0006 82.8965 63.0176Z" fill="#C4C4C4"/>
<path fill-rule="evenodd" clip-rule="evenodd" d="M164.6 52.8898C164.6 46.8046 161.579 42.0385 156.004 42.0385C150.557 42.0385 147.536 46.7194 147.579 52.7195C147.579 58.6771 150.557 63.4431 156.004 63.4431C161.281 63.4431 164.6 58.7623 164.6 52.8898ZM153.068 52.1238C153.068 49.7834 153.238 45.996 156.004 45.996C157.196 45.996 158.047 46.5065 158.472 47.8683C158.941 49.4004 159.026 51.3577 159.026 52.9749C159.026 55.443 158.856 59.4857 155.962 59.4857C153.066 59.4857 153.068 54.6028 153.068 52.2229L153.068 52.1238Z" fill="#C4C4C4"/>
<path d="M168.047 63.0176H171.792C171.98 63.0158 172.162 62.9463 172.302 62.8211C172.443 62.6959 172.534 62.524 172.558 62.337V51.9533C172.558 50.6341 172.643 49.4848 173.153 48.2936C173.579 47.3573 174.43 46.7617 175.324 46.7617C177.711 46.7617 177.687 49.3532 177.667 51.4246C177.666 51.6056 177.664 51.7826 177.664 51.9536V62.4216C177.707 62.7194 178.005 62.9746 178.345 63.0172H182.09C182.263 63.0249 182.432 62.9682 182.566 62.8583C182.7 62.7483 182.788 62.5927 182.813 62.4216V50.2937C182.813 48.4213 182.813 45.8255 181.835 44.2936C180.771 42.6337 179.111 42.0382 177.452 42.0382C174.856 42.0382 173.409 43.2722 172.345 45.9106H172.26V42.9744C172.222 42.8206 172.135 42.6834 172.012 42.5836C171.889 42.4838 171.737 42.4267 171.579 42.4211H168.09C167.912 42.4225 167.742 42.4878 167.609 42.6051C167.476 42.7224 167.39 42.8837 167.366 43.0594V62.3367C167.366 62.6772 167.664 62.975 168.047 63.0176Z" fill="#C4C4C4"/>
<path fill-rule="evenodd" clip-rule="evenodd" d="M125.145 63.1614C125.306 63.1461 125.457 63.081 125.578 62.9751L125.58 62.975C125.852 62.7484 126.199 62.4521 126.569 62.1355C127.243 61.5604 127.995 60.9185 128.516 60.5068C128.814 60.2941 128.771 59.8685 128.516 59.5281C128.434 59.4102 128.351 59.2954 128.269 59.1816C127.671 58.3507 127.112 57.5733 127.112 56.0387V50.2088C127.112 50.014 127.113 49.8202 127.114 49.6277C127.126 47.3821 127.138 45.3084 125.452 43.7406C124.005 42.3363 121.622 41.8683 119.793 41.8683C116.218 41.8683 112.26 43.1875 111.409 47.6131C111.324 48.0813 111.665 48.294 111.963 48.3791L115.58 48.7621C115.92 48.7621 116.133 48.4216 116.218 48.0812C116.516 46.5491 117.793 45.8258 119.239 45.8258C120.005 45.8258 120.856 46.1235 121.324 46.8044C121.813 47.4816 121.803 48.3919 121.794 49.2112C121.793 49.3186 121.792 49.4244 121.792 49.5279V49.9959C121.439 50.0375 121.068 50.0767 120.686 50.1172C118.716 50.3258 116.439 50.567 114.728 51.3151C112.387 52.3366 110.727 54.3791 110.727 57.443C110.727 61.3154 113.196 63.2729 116.345 63.2729C118.983 63.2729 120.472 62.6339 122.515 60.5494C122.614 60.6923 122.705 60.8253 122.79 60.9513C123.291 61.6882 123.631 62.188 124.685 63.0602C124.824 63.1412 124.985 63.1766 125.145 63.1614ZM121.791 54.0545C121.791 53.9789 121.791 53.9028 121.791 53.826V53.0181C119.068 53.0181 116.217 53.6139 116.217 56.8054C116.217 58.4226 117.068 59.5289 118.514 59.5289C119.578 59.5289 120.515 58.8906 121.11 57.8267C121.795 56.5769 121.793 55.4041 121.791 54.0545Z" fill="#C4C4C4"/>
<path fill-rule="evenodd" clip-rule="evenodd" d="M75.9527 63.1614C76.113 63.1461 76.2644 63.081 76.3857 62.9751L76.3872 62.975C76.6591 62.7484 77.006 62.4521 77.3767 62.1355C78.0502 61.5604 78.8018 60.9185 79.3233 60.5068C79.6211 60.2941 79.5787 59.8685 79.3233 59.5281C79.2413 59.4102 79.1587 59.2954 79.0767 59.1816C78.4787 58.3507 77.9191 57.5733 77.9191 56.0387V50.2088C77.9191 50.014 77.9201 49.8202 77.9212 49.6277C77.9335 47.3821 77.9449 45.3084 76.2595 43.7406C74.8126 42.3363 72.4297 41.8683 70.5998 41.8683C67.0254 41.8683 63.0678 43.1875 62.2167 47.6131C62.1317 48.0813 62.4722 48.294 62.77 48.3791L66.3871 48.7621C66.7276 48.7621 66.9403 48.4216 67.0254 48.0812C67.3233 46.5491 68.5999 45.8258 70.0467 45.8258C70.8121 45.8258 71.6632 46.1235 72.1313 46.8044C72.6203 47.4816 72.6104 48.3919 72.6016 49.2112C72.6004 49.3186 72.5993 49.4244 72.5993 49.5279V49.9959C72.2465 50.0375 71.8756 50.0767 71.4932 50.1172C69.5235 50.3258 67.2458 50.567 65.5354 51.3151C63.1943 52.3366 61.5347 54.3791 61.5347 57.443C61.5347 61.3154 64.0028 63.2729 67.1519 63.2729C69.7901 63.2729 71.2796 62.6339 73.3221 60.5494C73.4216 60.6923 73.512 60.8253 73.5977 60.9513C74.0988 61.6882 74.4385 62.188 75.4924 63.0602C75.6315 63.1412 75.7925 63.1766 75.9527 63.1614ZM72.6412 54.0546C72.6411 53.979 72.641 53.9028 72.641 53.826V53.0181C69.9175 53.0181 67.0664 53.6139 67.0664 56.8054C67.0664 58.4226 67.9174 59.5289 69.3643 59.5289C70.4282 59.5289 71.3645 58.8906 71.9601 57.8267C72.6452 56.5769 72.6433 55.4041 72.6412 54.0546Z" fill="#C4C4C4"/>
<path d="M139.706 67.0602C138.812 65.9113 133.748 66.507 131.493 66.8049C130.812 66.89 130.684 66.2943 131.322 65.8687C135.365 63.0176 141.961 63.8686 142.727 64.8048C143.493 65.741 142.514 72.379 138.726 75.5284C138.131 75.9964 137.577 75.7411 137.833 75.1028L137.877 74.9915C138.749 72.8147 140.584 68.231 139.706 67.0602Z" fill="#C4C4C4"/>
<path d="M136.77 70.4223C129.748 75.6141 119.535 78.3799 110.726 78.3799C98.3858 78.3799 87.3218 73.8266 78.8961 66.2521C78.2578 65.6565 78.811 64.8478 79.6194 65.3159C88.6835 70.5925 99.8752 73.7416 111.45 73.7416C119.237 73.7416 127.833 72.1246 135.748 68.7627C136.939 68.2946 137.919 69.5712 136.77 70.4223Z" fill="#C4C4C4"/>
<defs>
<filter id="filter0_d_2_588" x="-0.00439453" y="0" width="244" height="131" filterUnits="userSpaceOnUse" color-interpolation-filters="sRGB">
<feFlood flood-opacity="0" result="BackgroundImageFix"/>
<feColorMatrix in="SourceAlpha" type="matrix" values="0 0 0 0 0 0 0 0 0 0 0 0 0 0 0 0 0 0 127 0" result="hardAlpha"/>
<feOffset dy="10"/>
<feGaussianBlur stdDeviation="10"/>
<feColorMatrix type="matrix" values="0 0 0 0 0 0 0 0 0 0 0 0 0 0 0 0 0 0 0.1 0"/>
<feBlend mode="normal" in2="BackgroundImageFix" result="effect1_dropShadow_2_588"/>
<feBlend mode="normal" in="SourceGraphic" in2="effect1_dropShadow_2_588" result="shape"/>
</filter>
</defs>
</svg>

<svg xmlns="http://www.w3.org/2000/svg" width="244" height="131" fill="none" viewBox="0 0 244 131">
  <g filter="url(#a)">
    <rect width="204" height="91" x="19.996" y="10" fill="#fff" rx="12"/>
  </g>
  <path fill="#C4C4C4" d="M131.621 43.102v2.767a.708.708 0 0 0 .723.68h6.427l-7.405 10.596c-.468.681-.468 1.447-.468 1.872v2.809c0 .425.468.85.894.638 4.17-2.255 9.234-2.043 13.021-.042.468.255.893-.213.893-.639v-2.936c-.042-.383-.17-.809-.638-1.064-2.127-1.191-4.638-1.531-7.021-1.489l6.383-9.106c.596-.852.936-1.362.936-1.745v-2.34a.708.708 0 0 0-.724-.68h-12.34a.644.644 0 0 0-.639.413.637.637 0 0 0-.042.266ZM82.897 63.018h3.744a.747.747 0 0 0 .766-.639V51.964c-.002-2.232-.005-5.117 2.596-5.117 2.376 0 2.336 2.587 2.305 4.656-.004.229-.007.451-.007.663V62.38c0 .34.298.639.68.681h3.746a.709.709 0 0 0 .723-.68V51.862c-.004-1.083-.009-2.506.34-3.399a2.506 2.506 0 0 1 2.256-1.574c1.106 0 1.915.383 2.213 1.66.133.6.109 1.988.093 2.948-.004.263-.008.494-.008.668V62.38c0 .34.298.639.681.681h3.702a.709.709 0 0 0 .724-.68V50.208c0-.31.005-.626.011-.944.032-1.821.066-3.722-.948-5.099-1.064-1.49-2.766-2.127-4.34-2.127-2.213 0-4.299 1.148-5.192 3.574-1.022-2.425-2.51-3.575-4.851-3.575-2.298 0-4.043 1.15-4.937 3.575h-.085v-2.51a.693.693 0 0 0-.68-.639h-3.49a.709.709 0 0 0-.723.68V62.38a.769.769 0 0 0 .68.639Z"/>
  <path fill="#C4C4C4" fill-rule="evenodd" d="M164.6 52.89c0-6.085-3.021-10.852-8.596-10.852-5.447 0-8.468 4.681-8.425 10.681 0 5.958 2.978 10.724 8.425 10.724 5.277 0 8.596-4.68 8.596-10.553Zm-11.532-.766c0-2.34.17-6.128 2.936-6.128 1.192 0 2.043.51 2.468 1.872.469 1.532.554 3.49.554 5.107 0 2.468-.17 6.51-3.064 6.51-2.896 0-2.894-4.882-2.894-7.262v-.1Z" clip-rule="evenodd"/>
  <path fill="#C4C4C4" d="M168.047 63.018h3.745a.777.777 0 0 0 .766-.681V51.953c0-1.319.085-2.468.595-3.66.426-.936 1.277-1.531 2.171-1.531 2.387 0 2.363 2.591 2.343 4.663l-.003.529v10.468c.043.297.341.553.681.595h3.745a.7.7 0 0 0 .723-.595V50.294c0-1.873 0-4.468-.978-6-1.064-1.66-2.724-2.256-4.383-2.256-2.596 0-4.043 1.234-5.107 3.873h-.085v-2.937a.728.728 0 0 0-.681-.553h-3.489a.734.734 0 0 0-.724.638v19.278c0 .34.298.638.681.68Z"/>
  <path fill="#C4C4C4" fill-rule="evenodd" d="M125.145 63.161a.766.766 0 0 0 .433-.186h.002c.272-.227.619-.523.989-.84a79.471 79.471 0 0 1 1.947-1.628c.298-.213.255-.639 0-.979a20.736 20.736 0 0 0-.247-.346c-.598-.831-1.157-1.609-1.157-3.143v-5.83l.002-.581c.012-2.246.024-4.32-1.662-5.887-1.447-1.405-3.83-1.873-5.659-1.873-3.575 0-7.533 1.32-8.384 5.745-.085.468.256.681.554.766l3.617.383c.34 0 .553-.34.638-.68.298-1.533 1.575-2.256 3.021-2.256.766 0 1.617.297 2.085.978.489.678.479 1.588.47 2.407l-.002.317v.468c-.353.041-.724.08-1.106.121-1.97.209-4.247.45-5.958 1.198-2.341 1.022-4.001 3.064-4.001 6.128 0 3.872 2.469 5.83 5.618 5.83 2.638 0 4.127-.64 6.17-2.724l.275.402c.501.737.841 1.237 1.895 2.11a.77.77 0 0 0 .46.1Zm-3.354-9.107v-1.036c-2.723 0-5.574.596-5.574 3.787 0 1.618.851 2.724 2.297 2.724 1.064 0 2.001-.638 2.596-1.702.685-1.25.683-2.423.681-3.773Zm-45.838 9.107a.77.77 0 0 0 .433-.186h.001c.272-.227.619-.523.99-.84a77.734 77.734 0 0 1 1.946-1.628c.298-.213.256-.639 0-.979a25.36 25.36 0 0 0-.246-.346c-.598-.831-1.158-1.609-1.158-3.143v-5.83l.002-.581c.012-2.246.024-4.32-1.662-5.887-1.446-1.405-3.83-1.873-5.66-1.873-3.574 0-7.531 1.32-8.382 5.745-.085.468.255.681.553.766l3.617.383c.34 0 .553-.34.638-.68.298-1.533 1.575-2.256 3.022-2.256.765 0 1.616.297 2.084.978.49.678.48 1.588.47 2.407l-.002.317v.468c-.353.041-.723.08-1.106.121-1.97.209-4.247.45-5.958 1.198-2.34 1.022-4 3.064-4 6.128 0 3.872 2.468 5.83 5.617 5.83 2.638 0 4.128-.64 6.17-2.724.1.143.19.276.276.402.5.737.84 1.237 1.894 2.11.14.08.3.116.46.1Zm-3.312-9.106v-1.037c-2.724 0-5.575.596-5.575 3.787 0 1.618.851 2.724 2.298 2.724 1.064 0 2-.638 2.596-1.702.685-1.25.683-2.423.681-3.772Z" clip-rule="evenodd"/>
  <path fill="#C4C4C4" d="M139.706 67.06c-.894-1.149-5.958-.553-8.213-.255-.681.085-.809-.51-.171-.936 4.043-2.851 10.639-2 11.405-1.064.766.936-.213 7.574-4.001 10.723-.595.468-1.149.213-.893-.425l.044-.111c.872-2.177 2.707-6.761 1.829-7.932Z"/>
  <path fill="#C4C4C4" d="M136.77 70.422c-7.022 5.192-17.235 7.958-26.044 7.958-12.34 0-23.404-4.553-31.83-12.128-.638-.596-.085-1.404.723-.936 9.064 5.276 20.256 8.426 31.831 8.426 7.787 0 16.383-1.617 24.298-4.98 1.191-.467 2.171.81 1.022 1.66Z"/>
  <defs>
    <filter id="a" width="244" height="131" x="-.004" y="0" color-interpolation-filters="sRGB" filterUnits="userSpaceOnUse">
      <feFlood flood-opacity="0" result="BackgroundImageFix"/>
      <feColorMatrix in="SourceAlpha" result="hardAlpha" values="0 0 0 0 0 0 0 0 0 0 0 0 0 0 0 0 0 0 127 0"/>
      <feOffset dy="10"/>
      <feGaussianBlur stdDeviation="10"/>
      <feColorMatrix values="0 0 0 0 0 0 0 0 0 0 0 0 0 0 0 0 0 0 0.1 0"/>
      <feBlend in2="BackgroundImageFix" result="effect1_dropShadow_2_588"/>
      <feBlend in="SourceGraphic" in2="effect1_dropShadow_2_588" result="shape"/>
    </filter>
  </defs>
</svg>
